X: 31
T: No_124_Song_Concerning_a_Captive_Woman.krn
N: Derived from No_124_Song_Concerning_a_Captive_Woman.krn
%%abc-version 2.0
%%abcx-abcm2ps-target-version 5.9.1 (29 Sep 2008)
%%abc-creator hum2abc beta
%%abcx-conversion-date 2019/03/15 08:35:44
%%humdrum-veritas 2748283473
%%humdrum-veritas-data 1791534460
%%linebreak <none>
%%barnumbers 0
L: 1/8
M: 2/4
K: F clef=bass
[K:clef=bass][M:2/4]z2z C | 
C2CC ||  
[M:3/4]C4-CC ||  
[M:2/4]B,2G,F, ||  
[M:3/4]F,4z G, ||  
[M:2/4]B,2G,F, ||  
[M:3/4]F,4-F,G, ||  
[M:2/4]F,2D,C, ||  
[M:3/4]C,4z D, ||  
[M:2/4]F,2D,C, ||  
[M:3/4]C,4z C, ||  
[M:2/4]C,2D,C, ||  
[M:3/4]C,4z G, ||  
[M:2/4]A,2G,G, ||  
[M:3/4]G,4-G,G, ||  
[M:2/4]F,2D,C, ||  
[M:3/4]C,4z F, ||  
[M:2/4]G,2F,F, ||  
[M:3/4]F,4z G, ||  
[M:2/4]F,2D,C, ||  
[M:3/4]C,4z C, ||  
[M:2/4]F,2D,C, ||  
[M:3/4]C,4z C, ||  
[M:2/4]C,2D,C, | 
C,2C,C, | 
C,2z2 |]  



